X:1
T:Title
%%score { ( 1 4 5 6 ) | ( 2 3 7 ) }
L:1/8
M:4/4
K:Bb
V:1 treble nm="Grand Piano"
V:4 treble 
V:5 treble 
V:6 treble 
V:2 bass 
V:3 bass 
V:7 bass 
V:1
 z4 z2[Q:1/4=92] [DF]>[CE] | D>D D>D D2 [DB]>[FA] | G>G G>G G2 [FA]>[EG] | [DF]>[DF] F>F F>d c>d | %4
 c6 d>c | [DB]>[DB] [DB]>[DB] [DB]2 [FB]>[FA] | %6
[M:9/8] [EG]>[EG][GB]- [GB]/[GB]/ [Ge]2- [Ge][Gd]>[Gc] | %7
[M:35/32] B<BB>BA<Bd-(3:2:4d3/2-d/4c3/4-c/8 |[M:3/4] [DB]6 |[M:1/4] (3:2:2d2 B | %10
[M:4/4] (9:8:8F2- [DF-]2 [DF-]/ [EF]/-[EF]3/2F/-F3/2F/ | %11
 (9:8:8B2- [FB-]2 [_AB-]/ [GB]/-[GB-]3/2[F-=A-B]/[FA]3/2[EG]/ | %12
 (7:8:6[DF]/[DF]-[DF]/4 [DB]/4-[DB][DB]/ [=Ec]3/4 z/4 z (3:2:2[Ec]2 [Ed] |[M:7/8] c-c-c- c- c3 | %14
[M:1/4] (3:2:2d2 B |[M:4/4] (9:8:8F2- [DF-]2 [DF-]/ [EF]/-[EF]3/2F/-F3/2F/ | %16
[M:9/8] f3- f-f/4 z/4 z/ z z3 |[M:35/32] z2 B3/2-B/4 z2 z/4 d2- d/4 z/ |[M:3/4] [DB]6 |] %19
V:2
 z4 z2 [B,,B,]>[B,,F,] | [B,,F,B,]>[B,,F,B,] [B,,F,B,]>[B,,F,B,] [B,,F,B,]2 [B,,F,]>[D,B,] | %2
 [E,B,E]>[E,B,E] [E,B,E]>[E,B,E] [E,B,E]2 [E,B,]>[E,B,] | %3
 [B,,B,]>[B,,B,] [D,B,D]>[F,B,D][K:treble] [B,D]>[B,F] [A,CF]>[G,B,=E] | %4
 [F,A,F]6[K:bass] [F,A,F]>[F,A,E] | [B,,B,]>[B,,B,] [B,,B,]>[B,,B,] [B,,B,]2 [D,B,]>[D,B,] | %6
[M:9/8] [E,B,]>[E,B,][E,B,]- [E,B,]/[E,B,]/ [E,B,]2- [E,B,][E,=B,]>[E,C] | %7
[M:35/32] [F,DE]<[F,DF][F,DF]>[F,DF][F,CF]<[F,DF][F,B,F]-(3:2:4[F,B,F]3/2-[F,B,F]/4[F,A,E]3/4-[F,A,E]/8 | %8
[M:3/4] [B,,B,]6- |[M:1/4] [B,,B,]/4 z/4 z/ z | %10
[M:4/4] z2 (3:2:2[B,,B,]2 [B,,B,] [C,A,]2- [C,A,]/4 z/4 z/ z | z4 [E,B,]2- [E,B,]/4 z/4 z/ z | %12
 (7:8:6[B,,B,]/[B,,B,]-[B,,B,]/4 [G,B,]/4-[G,B,][G,B,]/ [C,B,]3/4 z/4 z (3:2:2[C,B,]2 [C,B,] | %13
[M:7/8] [A,F]2- [A,F]/4 z/4 z/ z/ [F,E]/ z z2 |[M:1/4] z2 | %15
[M:4/4] z2 (3:2:2[B,,B,]2 [B,,B,] [C,A,]2- [C,A,]/4 z/4 z/ z |[M:9/8] z3 z3 z =B,3/2-B,/4 z/4 | %17
[M:35/32] z2 [F,DF]3/2-[F,DF]/4 z2 z/4 [B,F]2- [B,F]/4 z/ |[M:3/4] [B,,B,]6 |] %19
V:3
 x8 | x8 | x8 | x4[K:treble] x4 | x6[K:bass] x2 | x8 |[M:9/8] x9 |[M:35/32] x35/4 |[M:3/4] x6 | %9
[M:1/4] x2 |[M:4/4] x8 | z2 (3:2:2[D,B,]2 [D,B,] z2 (3:2:2[E,B,]2 [E,B,] | %12
 z4 z/ [C,B,]3/2- [C,B,]/4 z/4 z/ z |[M:7/8] [F,E]2 [F,B,E]>B,-[F,-B,C-E-]/<[F,CE]/- [F,CE]2- | %14
[M:1/4] [F,CE]/4 z/4 z/ z |[M:4/4] x8 |[M:9/8] z3 z/ B,/ B,2- B,-B,/4 z/4 z/ z | %17
[M:35/32] (3:2:4[F,DF]3/4-[F,DF]/8[F,DF]3/2-[F,DF]/4-[F,DF] z3/4 (3:2:8[F,DF]3/4-[F,DF]/8[F,CE]3/8-[F,CE]/16 z3/8 z/16 [F,B,D]3/4-[F,B,D]/8-[F,B,D-]/>[F,-D]/F,3/2-F,/<[F,A,E]/ | %18
[M:3/4] x6 |] %19
V:4
 x8 | x8 | x8 | x8 | x8 | x8 |[M:9/8] x9 |[M:35/32] x35/4 |[M:3/4] x6 |[M:1/4] x2 |[M:4/4] x8 | %11
 x8 | z4 z/ [=EG]3/2- [EG]/4 z/4 z/ z |[M:7/8] z2 G2 A3 |[M:1/4] x2 |[M:4/4] x8 | %16
[M:9/8] z3 z [Ge]2- [Ge]3/4 z/4 d3/2-[G-c-d]/4[Gc]/4 | %17
[M:35/32] (3:2:4B3/4-B/8B3/2-B/4-B z3/4 (3:2:8B3/4-B/8A3/8-A/16 z3/8 z/16 B3/4-B/8-B z3/2 z/4 c3/4 | %18
[M:3/4] x6 |] %19
V:5
 x8 | x8 | x8 | x8 | x8 | x8 |[M:9/8] x9 |[M:35/32] x35/4 |[M:3/4] x6 |[M:1/4] x2 |[M:4/4] x8 | %11
 x8 | x8 |[M:7/8] z z z z/ G/-G/4 z/4 z/ z2 |[M:1/4] x2 |[M:4/4] x8 | %16
[M:9/8] z3 z/ _A/-A/4 z/4 z/ z z G2 |[M:35/32] x35/4 |[M:3/4] x6 |] %19
V:6
 x8 | x8 | x8 | x8 | x8 | x8 |[M:9/8] x9 |[M:35/32] x35/4 |[M:3/4] x6 |[M:1/4] x2 |[M:4/4] x8 | %11
 x8 | x8 |[M:7/8] x7 |[M:1/4] x2 |[M:4/4] x8 |[M:9/8] z2 F- F3/4 z/4 z z z3 |[M:35/32] x35/4 | %18
[M:3/4] x6 |] %19
V:7
 x8 | x8 | x8 | x4[K:treble] x4 | x6[K:bass] x2 | x8 |[M:9/8] x9 |[M:35/32] x35/4 |[M:3/4] x6 | %9
[M:1/4] x2 |[M:4/4] x8 | x8 | x8 |[M:7/8] x7 |[M:1/4] x2 |[M:4/4] x8 | %16
[M:9/8] z2 [D,B,]- [D,B,]/D,/-[D,E,-]/<E,/-E,- E,E,>[E,C] |[M:35/32] x35/4 |[M:3/4] x6 |] %19

